X:1
T:Title
%%score { ( 1 5 ) | ( 2 3 4 ) }
L:1/8
M:3/4
K:Bb
V:1 treble nm="Grand Piano"
V:5 treble 
V:2 bass 
V:3 bass 
V:4 bass 
V:1
 z2 z[Q:1/4=90] F =E_E | [B,D]3 F [DB]>c | [CA]4 [Ec]2 | [Fd]3 c [Ec]>d |[M:2/4] [DB]4 | %5
[M:1/4] [Fd]2 |[M:3/4] [Fd]>c [Ge]3 c | [Ec]>B d2 d2 | [=Ec]>G G2 [Ec]2 |[M:2/4] [Ec]4 | %10
[M:1/4] [EF]2 |[M:3/4] [DF]>[DF] [FB]2 [FA]2 | G4 z2 | [=EG]>[EG] [Ed]2 [Ec]2 |[M:7/8] c-c- c3 z2 | %15
[M:3/4] [DF]>[Fd] [Fd]2 [_Ad]2 |[M:7/8] [Gd]>[Gc] [Ge]3 [^Fe]2 |[M:3/4] d>d .d2 c2 | %18
[M:7/16] B/-B/-B/-B-<B |] %19
V:2
 z2 z D _DC | z2 z D z z/ E/ | z2 F,2 F,2 | z2 z E z z/ F/ |[M:2/4] z2 F,2 |[M:1/4] F,2 | %6
[M:3/4] z z/ E/ F,2 z E | z z/[K:treble] D/ [F,F]2 [B,F]2 | z z/ =E/ E2 [C,B,]2 |[M:2/4] [F,A,]4 | %10
[M:1/4] [F,A,]2 |[M:3/4] [B,,B,]>[B,,B,] [D,B,]2 [D,B,]2 | [E,B,E][E,B,] [E,B,]2 [E,B,E]2 | %13
 [C,B,]>[C,B,] [C,B,]2 [C,B,]2 |[M:7/8] [F,A,F][G,B,] [A,C]3 [F,A,E]2 | %15
[M:3/4] [B,,B,]>[B,,B,] [B,,B,]2 [B,,B,]2 |[M:7/8] [E,B,]>[E,B,] [E,B,]3 [E,B,]2 | %17
[M:3/4] [F,B,F]>[F,B,F] .[F,B,F]2 [F,A,E]2 |[M:7/16] z G,F,3/2 |] %19
V:3
 x6 | z2 F,2 F,2 | F,,6 | z2 F,2 F,2 |[M:2/4] B,,4 |[M:1/4] x2 |[M:3/4] z2 z2 F,2 | %7
 B,,6[K:treble] | [C,B,]4 z2 |[M:2/4] x4 |[M:1/4] x2 |[M:3/4] x6 | x6 | x6 |[M:7/8] x7 | %15
[M:3/4] x6 |[M:7/8] x7 |[M:3/4] x6 |[M:7/16] B,,/-B,,/-B,,/-B,,-<B,, |] %19
V:4
 x6 | B,,6 | x6 | F,,6 |[M:2/4] x4 |[M:1/4] x2 |[M:3/4] F,,6 | x3/2[K:treble] x9/2 | x6 | %9
[M:2/4] x4 |[M:1/4] x2 |[M:3/4] x6 | x6 | x6 |[M:7/8] x7 |[M:3/4] x6 |[M:7/8] x7 |[M:3/4] x6 | %18
[M:7/16] x7/2 |] %19
V:5
 x6 | x6 | x6 | x6 |[M:2/4] x4 |[M:1/4] x2 |[M:3/4] x6 | x6 | x6 |[M:2/4] x4 |[M:1/4] x2 | %11
[M:3/4] x6 | z E E2 G2 | x6 |[M:7/8] z =E _E3 F2 |[M:3/4] x6 |[M:7/8] x7 |[M:3/4] x6 | %18
[M:7/16] [B,D]ED3/2 |] %19

